components/2.0/icon/icons/icon-page-fit-22px.svg

<?xml version="1.0" encoding="UTF-8" standalone="no"?>
<svg width="22px" height="22px" viewBox="0 0 22 22" version="1.1" xmlns="http://www.w3.org/2000/svg" xmlns:xlink="http://www.w3.org/1999/xlink" xmlns:sketch="http://www.bohemiancoding.com/sketch/ns">
    <!-- Generator: Sketch 3.4.4 (17249) - http://www.bohemiancoding.com/sketch -->
    <title>icon-page-fit-22px</title>
    <desc>Created with Sketch.</desc>
    <defs></defs>
    <g id="22px" stroke="none" stroke-width="1" fill="none" fill-rule="evenodd" sketch:type="MSPage">
        <g id="icon-page-fit-22px" sketch:type="MSArtboardGroup" fill="#78818C">
            <path d="M3,2 L3,20 L19,20 L19,7 L14,2 L3,2 L3,2 Z M5,5 L10,5 L8.207,6.793 L15.207,13.793 L17,12 L17,17 L12,17 L13.793,15.207 L6.793,8.207 L5,10 L5,5 L5,5 Z" id="Page-1" sketch:type="MSShapeGroup"></path>
        </g>
    </g>
</svg>

<svg width="22" height="22" xmlns="http://www.w3.org/2000/svg"><path d="M3 2v18h16V7l-5-5H3zm2 3h5L8.2 6.8l7 7L17 12v5h-5l1.8-1.8-7-7L5 10V5z" fill="#78818C" fill-rule="evenodd"/></svg>
